dist/svgs/crypto-icons/icons/nxt.svg

<?xml version="1.0" encoding="UTF-8" standalone="yes"?>
<svg xmlns="http://www.w3.org/2000/svg" xmlns:xlink="http://www.w3.org/1999/xlink" width="512px" height="512px" viewBox="0 0 384 384" version="1.1">
  <g id="surface1">
    <path style=" stroke:none;fill-rule:nonzero;fill:rgb(0%,0%,0%);fill-opacity:1;" d="M 175.269531 256.082031 L 140.121094 256.082031 L 42.441406 191.355469 L 16.375 191.355469 C 7.332031 191.355469 0 184.019531 0 174.976562 C 0 165.933594 7.332031 158.601562 16.375 158.601562 L 52.308594 158.601562 L 149.984375 223.328125 L 175.269531 223.328125 C 184.316406 223.328125 191.648438 230.664062 191.648438 239.707031 C 191.648438 248.75 184.316406 256.082031 175.269531 256.082031 Z M 319.675781 256.082031 L 267.792969 256.082031 L 170.117188 191.355469 L 144.050781 191.355469 C 135.003906 191.355469 127.671875 184.019531 127.671875 174.976562 C 127.671875 165.933594 135.003906 158.601562 144.050781 158.601562 L 179.984375 158.601562 L 277.660156 223.328125 L 319.675781 223.328125 C 328.722656 223.328125 336.054688 230.664062 336.054688 239.707031 C 336.050781 248.75 328.722656 256.082031 319.675781 256.082031 Z M 367.246094 223.71875 C 358.203125 223.71875 350.871094 216.386719 350.871094 207.339844 L 350.871094 191.355469 L 271.167969 191.355469 C 262.121094 191.355469 254.789062 184.019531 254.789062 174.976562 C 254.789062 165.933594 262.121094 158.601562 271.167969 158.601562 L 383.625 158.601562 L 383.625 207.339844 C 383.621094 216.386719 376.292969 223.71875 367.246094 223.71875 Z M 48.023438 256.082031 L 16.375 256.082031 C 7.332031 256.082031 0 248.75 0 239.707031 C 0 230.664062 7.332031 223.328125 16.375 223.328125 L 48.023438 223.328125 C 57.070312 223.328125 64.402344 230.664062 64.402344 239.707031 C 64.402344 248.75 57.070312 256.082031 48.023438 256.082031 Z M 48.023438 256.082031 "/>
  </g>
</svg>

<svg xmlns="http://www.w3.org/2000/svg" viewBox="0 0 384 384"><path d="M175.27 256.082h-35.15l-97.68-64.727H16.375C7.332 191.355 0 184.02 0 174.977s7.332-16.375 16.375-16.375h35.934l97.675 64.726h25.286c9.046 0 16.378 7.336 16.378 16.379 0 9.043-7.332 16.375-16.378 16.375zm144.406 0h-51.883l-97.676-64.727h-26.066c-9.047 0-16.38-7.335-16.38-16.378s7.333-16.375 16.38-16.375h35.933l97.676 64.726h42.016c9.047 0 16.379 7.336 16.379 16.379-.004 9.043-7.332 16.375-16.38 16.375zm47.57-32.363c-9.043 0-16.375-7.332-16.375-16.38v-15.984h-79.703c-9.047 0-16.379-7.335-16.379-16.378s7.332-16.375 16.379-16.375h112.457v48.738c-.004 9.047-7.332 16.379-16.379 16.379zM48.023 256.082H16.375C7.332 256.082 0 248.75 0 239.707s7.332-16.379 16.375-16.379h31.648c9.047 0 16.38 7.336 16.38 16.379 0 9.043-7.333 16.375-16.38 16.375zm0 0"/></svg>
